X:121
T:Maid At the Well, The 
T:The Milkmaid   
B:CRE1.013 (Maide Draighin)
F:file ID: cre.1/121maid_w
S:John Potts
N:Gaelic title = "Blackthorn Stick", but this isn't the "session version" of
that tune. The two titles I have used are mentioned in Breathnach's notes.
M:6/8
Q:160
R:jig
K:G
GED D3|GEG c2e|dBG GAB|AGE E3|
GED D3|GEG c2e|dBG GAB|1 AGF G3:|2 AGF G2||
d|gdB GBd|gdB c2e|dBG GAB|AGE E3|
gdB GBd|gdB c2e|dBG GAB|AGF G2d|
gdd gdd|gdB cde|dBG GAB|AGE E3|
GED D3|GEG c2e|dBG GAB|AGF HG3|]

%%%

